X:185
T:Rainy River Waltz
C:Andy De Jarlis
M:3/4
L:1/8
Z:abc by Bruce Osborne - bosborne@kos.net
K:C
G3/2F/|E4 G2|c2 E2 G2|F4 A2|A6|!
G3 A Bc|d3 e fd|e6 -|e4 G3/2F/|!
E4 G2|c2 E2 G2|F4 A2|A6|!
G3 A Bc|d3 f ed|c6 -|c4:|!
|:de|f3 e fg|f4 Gc|e6 -|e4 dc|!
B4 c2|d4 ef|e6 -|e4 de|!
f3 e fg|f4 Gc|e6 -|e4 dc|!
B4 c2|d3 f ed|c6 -|c4:|!
